art/dp/systems_1920/colecovision.svg

<svg enable-background="new 0 0 3840 1254" height="627" viewBox="0 0 1920 627" width="1920" xmlns="http://www.w3.org/2000/svg" xmlns:xlink="http://www.w3.org/1999/xlink"><linearGradient id="a" gradientUnits="userSpaceOnUse" x1="84.989899" x2="3755.01" y1="626.99042" y2="626.99042"><stop offset="0" stop-color="#d81526"/><stop offset=".25" stop-color="#de551e"/><stop offset=".5" stop-color="#eeb824"/><stop offset=".75" stop-color="#75b230"/><stop offset="1" stop-color="#49a070"/></linearGradient><g transform="scale(.5)"><g fill="#d8d8d8"><path d="m1091.2 1252.6c-41.9 0-76-34.1-76-76v-587.2c0-13.7 11.1-24.8 24.8-24.8h272.8c13.7 0 24.8 11.1 24.8 24.8v638.4c0 13.7-11.1 24.8-24.8 24.8z"/><path d="m1938.6 1252.6c-41.9 0-76-34.1-76-76v-587.2c0-13.7 11.1-24.8 24.8-24.8h272c13.7 0 24.8 11.1 24.8 24.8v638.4c0 13.7-11.1 24.8-24.8 24.8z"/><path d="m1229.3 1252.6c-13.7 0-24.8-11.1-24.8-24.8v-249.4c0-13.7 11.1-24.8 24.8-24.8h15.7c-26.1-38.8-40.5-84.8-40.5-132.1v-20.2c0-130.5 106.1-236.6 236.6-236.6h512.9c13.7 0 24.8 11.1 24.8 24.8v249.4c0 13.4-10.6 24.2-23.8 24.8 26.1 38.8 40.5 84.8 40.5 132.1v20.2c0 130.5-106.1 236.6-236.6 236.6z"/><path d="m835.4 690.7c-129.4 0-234.6-105.2-234.6-234.6v-221.5c0-129.4 105.2-234.6 234.6-234.6l391.4.4c129.2.1 234.3 105.4 234.3 234.6v221.1c0 129.4-105.2 234.6-234.6 234.6zm304.1-301.1v-90.7h-217.1v90.7z"/><path d="m3214.3 692c-129.4 0-234.6-105.2-234.6-234.6v-221.6c0-129.4 105.2-234.6 234.6-234.6l391.4.4c129.2.2 234.3 105.4 234.3 234.6v221.1c0 129.4-105.2 234.6-234.6 234.6h-391.1zm304.1-301.2v-90.7h-217.1v90.7z"/><path d="m2285.9 1254c-129.4 0-234.6-105.2-234.6-234.6v-221.5c0-129.4 105.2-234.6 234.6-234.6l391.4.4c129.2.1 234.3 105.4 234.3 234.6v221.1c0 129.4-105.2 234.6-234.6 234.6zm304.1-301.2v-90.7h-217.1v90.7z"/><path d="m234.6 692c-129.4 0-234.6-105.3-234.6-234.6v-221.6c0-129.3 105.2-234.6 234.6-234.6l433.2.2c41.9 0 75.9 34.1 75.9 76v197.9c0 13.7-11.1 24.8-24.8 24.8h-397.3v90.7h397.3c13.7 0 24.8 11.1 24.8 24.8l48.8 251.6c0 13.7-11.1 24.8-24.8 24.8z"/><path d="m2613.6 692c-129.4 0-234.6-105.2-234.6-234.6v-221.6c0-129.4 105.2-234.6 234.6-234.6l433.2.2c41.9 0 75.9 34.1 75.9 76v197.9c0 13.7-11.1 24.8-24.8 24.8h-397.3v90.7h397.3c13.7 0 24.8 11.1 24.8 24.8v251.6c0 13.7-11.1 24.8-24.8 24.8z"/><path d="m1552.6 691c-129.4 0-234.6-105.2-234.6-234.6v-429.8c0-13.7 11.1-24.8 24.8-24.8h220.9c41.9 0 76 34.1 76 76v312.1h257.3c13.7 0 24.8 11.1 24.8 24.8v251.6c0 13.7-11.1 24.8-24.8 24.8h-344.4z"/><path d="m2013.1 692c-129.4 0-234.6-105.2-234.6-234.6v-431.5c0-6.6 2.6-12.9 7.3-17.5 4.6-4.6 11-7.3 17.5-7.3 0 0 643 .4 643 .4 41.9 0 75.9 34.1 75.9 76v197.9c0 13.7-11.1 24.8-24.8 24.8h-11.4v90.7h11.4c13.7 0 24.8 11.1 24.8 24.8v251.6c0 13.7-11.1 24.8-24.8 24.8h-484.3z"/><path d="m3392.3 1250.8c-41.4-.5-75.1-34.5-75.1-76v-312.7h-217.1v365.7c0 13.7-11.1 24.8-24.8 24.8h-220.9c-41.9 0-76-34.1-76-76v-588.5c0-13.7 11.1-24.8 24.8-24.8h266.8c.6 0 1.2 0 1.7.1l332.7.3c129.2.1 234.3 105.4 234.3 234.6v430.3c0 6.6-2.7 13-7.4 17.6-4.6 4.6-10.9 7.2-17.4 7.2 0-.1-221.6-2.6-221.6-2.6z"/><path d="m546.2 1252.6c-8.9 0-17-4.7-21.5-12.4l-368.6-638.4c-4.4-7.7-4.4-17.1 0-24.8s12.6-12.4 21.5-12.4h314.1c8.9 0 17 4.7 21.5 12.4l159.4 276.1 159.4-276.1c4.4-7.7 12.6-12.4 21.5-12.4h314.1c8.9 0 17 4.7 21.5 12.4 4.4 7.7 4.4 17.1 0 24.8l-368.6 638.4c-4.4 7.7-12.6 12.4-21.5 12.4z"/></g><path d="m1040 1176.7v-587.3h272.8v638.4h-221.7c-28.2 0-51.1-22.9-51.1-51.1z"/><path d="m1887.5 1176.7v-587.3h272v638.4h-220.9c-28.2 0-51.1-22.9-51.1-51.1z"/><path d="m1229.3 1227.8v-249.4h69.7c-42.8-38.8-69.7-94.8-69.7-156.9v-20.2c0-116.8 95-211.8 211.8-211.8h512.9v249.4h-53c42.8 38.8 69.7 94.8 69.7 156.9v20.2c0 116.8-95 211.8-211.8 211.8z"/><path d="m835.4 665.9c-115.7 0-209.8-94.1-209.8-209.8v-221.5c0-115.7 94.1-209.8 209.8-209.8l391.4.4c115.6.1 209.6 94.2 209.6 209.8v221.1c0 115.7-94.1 209.8-209.8 209.8z"/><path d="m3214.3 667.2c-115.7 0-209.8-94.1-209.8-209.8v-221.6c0-115.7 94.1-209.8 209.8-209.8l391.4.4c115.6.1 209.6 94.2 209.6 209.8v221.1c0 115.7-94.1 209.8-209.8 209.8h-391.2z"/><path d="m2285.9 1229.2c-115.7 0-209.8-94.1-209.8-209.8v-221.5c0-115.7 94.1-209.8 209.8-209.8l391.4.4c115.6.1 209.6 94.2 209.6 209.8v221.1c0 115.7-94.1 209.8-209.8 209.8z"/><path d="m234.6 667.2c-115.9 0-209.8-93.9-209.8-209.8v-221.6c0-115.6 94.1-209.8 209.8-209.8l433.2.2c28.2 0 51.1 22.9 51.1 51.2l136.6 589.8z"/><path d="m2613.6 667.2c-115.9 0-209.8-93.9-209.8-209.8v-221.6c0-115.7 94.1-209.8 209.8-209.8l433.2.2c28.2 0 51.1 22.9 51.1 51.2v338.2 251.6z"/><path d="m1552.6 666.2c-115.9 0-209.8-93.9-209.8-209.8v-429.8h220.9c28.3 0 51.2 22.9 51.2 51.2v336.8h282.1v251.6z"/><path d="m2013.1 667.2c-115.9 0-209.8-93.9-209.8-209.8v-431.5l643 .4c28.2 0 51.1 22.9 51.1 51.2v197.9h-36.2v140.3h36.2v251.6h-484.3z"/><path d="m3342 1174.8v-337.5h-266.7v390.5h-220.9c-28.3 0-51.2-22.9-51.2-51.2v-588.5h266.8v.1l334.4.3c115.8.1 209.6 94 209.6 209.8v430.3l-221.5-2.5c-28-.4-50.5-23.2-50.5-51.3z"/><path d="m546.2 1227.8-368.6-638.4h314.1l180.9 313.3 180.9-313.3h314.1l-368.6 638.4z"/><path d="m1364.2 573.1h45.9v45.9h-45.9z"/><path d="m835.4 605.7h391.1c82.6 0 149.6-67 149.6-149.6v-221.1c0-82.6-66.9-149.5-149.4-149.6l-391.2-.4c-82.7-.1-149.8 66.9-149.8 149.6v221.5c.1 82.6 67.1 149.6 149.7 149.6zm2-333.8c0-32 26-58 58-58h271c32 0 58 26 58 58v144.6c0 32-26 58-58 58h-271c-32 0-58-26-58-58zm2768.2-185.3-391.1-.4c-82.7-.1-149.8 66.9-149.8 149.6v221.5c0 82.6 67 149.6 149.6 149.6h391.1c82.6 0 149.6-67 149.6-149.6v-221.1c0-82.5-66.9-149.5-149.4-149.6zm-2.2 331.2c0 32-26 58-58 58h-271c-32 0-58-26-58-58v-144.7c0-32 26-58 58-58h271c32 0 58 26 58 58zm-2944.7 58h-364c-32 0-58-26-58-58v-144.7c0-32 26-58 58-58h364v-128.7l-424-.2c-82.6 0-149.7 67-149.7 149.6v221.5c0 82.7 67 149.7 149.6 149.7h424.1zm1954.9 131.2h424.1v-131.2h-364c-32 0-58-26-58-58v-144.7c0-32 26-58 58-58h364v-128.7l-424-.2c-82.7-.1-149.8 66.9-149.8 149.6v221.5c.1 82.7 67.1 149.7 149.7 149.7zm-1061-1h284.1v-131.2h-224c-32 0-58-26-58-58v-330h-151.7v369.6c0 82.6 66.9 149.6 149.6 149.6zm460.5 1h424.1v-131.2h-383.3c-21.4 0-38.8-17.4-38.8-38.8s17.4-38.8 38.8-38.8h347.1v-103.3h-346c-22 0-39.9-17.9-39.9-39.9s17.9-39.9 39.9-39.9h382.2v-128.7l-573.7-.4v371.3c0 82.7 66.9 149.7 149.6 149.7zm-912.9 560.6h152.4v-518h-152.4zm847.5 0h151.6v-518h-151.6zm-188.8-323.5h-285c-18.1 0-32.7-14.7-32.7-32.7 0-18.1 14.7-32.7 32.7-32.7h419.9v-129h-452.6c-83.7 0-151.6 67.9-151.6 151.6v20.2c0 83.7 67.9 151.6 151.6 151.6h285c18.1 0 32.7 14.7 32.7 32.7s-14.7 32.7-32.7 32.7h-436.6v129h469.3c83.7 0 151.6-67.9 151.6-151.6v-20.2c0-83.7-67.9-151.6-151.6-151.6zm918.3-195.4-391.1-.4c-82.7-.1-149.8 66.9-149.8 149.6v221.5c0 82.6 67 149.6 149.6 149.6h391.1c82.6 0 149.6-67 149.6-149.6v-221.1c0-82.6-66.9-149.6-149.4-149.6zm-2.2 331.1c0 32-26 58-58 58h-271c-32 0-58-26-58-58v-144.6c0-32 26-58 58-58h271c32 0 58 26 58 58zm729.4-331.1-391.1-.4c-1.1 0-2.3.1-3.4.2v-.2h-146.4v519.4h151.6v-332.5c0-32 26-58 58-58h271c32 0 58 26 58 58v330.8l151.6 1.7v-369.4c.1-82.6-66.8-149.6-149.3-149.6zm-2731.8 374.4-215.7-373.5h-175.1l299.1 518h183.3l299.1-518h-175.1z" fill="url(#a)"/></g></svg>

<?xml version="1.0" encoding="UTF-8" standalone="no"?>
<svg
   enable-background="new 0 0 3840 1254"
   viewBox="0 0 1920 627"
   version="1.1"
   id="svg30"
   sodipodi:docname="colecovision.svg"
   inkscape:version="1.3.2 (091e20e, 2023-11-25)"
   width="1920"
   height="627"
   xmlns:inkscape="http://www.inkscape.org/namespaces/inkscape"
   xmlns:sodipodi="http://sodipodi.sourceforge.net/DTD/sodipodi-0.dtd"
   xmlns="http://www.w3.org/2000/svg"
   xmlns:svg="http://www.w3.org/2000/svg">
  <defs
     id="defs30" />
  <sodipodi:namedview
     id="namedview30"
     pagecolor="#ffffff"
     bordercolor="#000000"
     borderopacity="0.25"
     inkscape:showpageshadow="2"
     inkscape:pageopacity="0.0"
     inkscape:pagecheckerboard="0"
     inkscape:deskcolor="#d1d1d1"
     inkscape:zoom="0.18819777"
     inkscape:cx="1918.1949"
     inkscape:cy="626.99999"
     inkscape:window-width="1312"
     inkscape:window-height="449"
     inkscape:window-x="0"
     inkscape:window-y="23"
     inkscape:window-maximized="0"
     inkscape:current-layer="svg30" />
  <linearGradient
     id="a"
     gradientUnits="userSpaceOnUse"
     x1="84.989899"
     x2="3755.01"
     y1="626.99042"
     y2="626.99042">
    <stop
       offset="0"
       stop-color="#d81526"
       id="stop1" />
    <stop
       offset=".25"
       stop-color="#de551e"
       id="stop2" />
    <stop
       offset=".5"
       stop-color="#eeb824"
       id="stop3" />
    <stop
       offset=".75"
       stop-color="#75b230"
       id="stop4" />
    <stop
       offset="1"
       stop-color="#49a070"
       id="stop5" />
  </linearGradient>
  <g
     id="g1"
     transform="scale(0.5)">
    <g
       id="g30">
      <g
         fill="#d8d8d8"
         id="g16">
        <path
           d="m 1091.2,1252.6 c -41.9,0 -76,-34.1 -76,-76 V 589.4 c 0,-13.7 11.1,-24.8 24.8,-24.8 h 272.8 c 13.7,0 24.8,11.1 24.8,24.8 v 638.4 c 0,13.7 -11.1,24.8 -24.8,24.8 z"
           id="path5" />
        <path
           d="m 1938.6,1252.6 c -41.9,0 -76,-34.1 -76,-76 V 589.4 c 0,-13.7 11.1,-24.8 24.8,-24.8 h 272 c 13.7,0 24.8,11.1 24.8,24.8 v 638.4 c 0,13.7 -11.1,24.8 -24.8,24.8 z"
           id="path6" />
        <path
           d="m 1229.3,1252.6 c -13.7,0 -24.8,-11.1 -24.8,-24.8 V 978.4 c 0,-13.7 11.1,-24.8 24.8,-24.8 h 15.7 c -26.1,-38.8 -40.5,-84.8 -40.5,-132.1 v -20.2 c 0,-130.5 106.1,-236.6 236.6,-236.6 H 1954 c 13.7,0 24.8,11.1 24.8,24.8 v 249.4 c 0,13.4 -10.6,24.2 -23.8,24.8 26.1,38.8 40.5,84.8 40.5,132.1 v 20.2 c 0,130.5 -106.1,236.6 -236.6,236.6 z"
           id="path7" />
        <path
           d="M 835.4,690.7 C 706,690.7 600.8,585.5 600.8,456.1 V 234.6 C 600.8,105.2 706,0 835.4,0 l 391.4,0.4 C 1356,0.5 1461.1,105.8 1461.1,235 v 221.1 c 0,129.4 -105.2,234.6 -234.6,234.6 z M 1139.5,389.6 V 298.9 H 922.4 v 90.7 z"
           id="path8" />
        <path
           d="M 3214.3,692 C 3084.9,692 2979.7,586.8 2979.7,457.4 V 235.8 c 0,-129.4 105.2,-234.6 234.6,-234.6 l 391.4,0.4 C 3734.9,1.8 3840,107 3840,236.2 v 221.1 c 0,129.4 -105.2,234.6 -234.6,234.6 h -391.1 z m 304.1,-301.2 v -90.7 h -217.1 v 90.7 z"
           id="path9" />
        <path
           d="m 2285.9,1254 c -129.4,0 -234.6,-105.2 -234.6,-234.6 V 797.9 c 0,-129.4 105.2,-234.6 234.6,-234.6 l 391.4,0.4 c 129.2,0.1 234.3,105.4 234.3,234.6 v 221.1 c 0,129.4 -105.2,234.6 -234.6,234.6 z M 2590,952.8 v -90.7 h -217.1 v 90.7 z"
           id="path10" />
        <path
           d="M 234.6,692 C 105.2,692 0,586.7 0,457.4 V 235.8 C 0,106.5 105.2,1.2 234.6,1.2 l 433.2,0.2 c 41.9,0 75.9,34.1 75.9,76 v 197.9 c 0,13.7 -11.1,24.8 -24.8,24.8 H 321.6 v 90.7 h 397.3 c 13.7,0 24.8,11.1 24.8,24.8 l 48.8,251.6 c 0,13.7 -11.1,24.8 -24.8,24.8 z"
           id="path11" />
        <path
           d="M 2613.6,692 C 2484.2,692 2379,586.8 2379,457.4 V 235.8 C 2379,106.4 2484.2,1.2 2613.6,1.2 l 433.2,0.2 c 41.9,0 75.9,34.1 75.9,76 v 197.9 c 0,13.7 -11.1,24.8 -24.8,24.8 h -397.3 v 90.7 h 397.3 c 13.7,0 24.8,11.1 24.8,24.8 v 251.6 c 0,13.7 -11.1,24.8 -24.8,24.8 z"
           id="path12" />
        <path
           d="M 1552.6,691 C 1423.2,691 1318,585.8 1318,456.4 V 26.6 c 0,-13.7 11.1,-24.8 24.8,-24.8 h 220.9 c 41.9,0 76,34.1 76,76 V 389.9 H 1897 c 13.7,0 24.8,11.1 24.8,24.8 v 251.6 c 0,13.7 -11.1,24.8 -24.8,24.8 h -344.4 z"
           id="path13" />
        <path
           d="M 2013.1,692 C 1883.7,692 1778.5,586.8 1778.5,457.4 V 25.9 c 0,-6.6 2.6,-12.9 7.3,-17.5 4.6,-4.6 11,-7.3 17.5,-7.3 0,0 643,0.4 643,0.4 41.9,0 75.9,34.1 75.9,76 v 197.9 c 0,13.7 -11.1,24.8 -24.8,24.8 H 2486 v 90.7 h 11.4 c 13.7,0 24.8,11.1 24.8,24.8 v 251.6 c 0,13.7 -11.1,24.8 -24.8,24.8 h -484.3 z"
           id="path14" />
        <path
           d="m 3392.3,1250.8 c -41.4,-0.5 -75.1,-34.5 -75.1,-76 V 862.1 h -217.1 v 365.7 c 0,13.7 -11.1,24.8 -24.8,24.8 h -220.9 c -41.9,0 -76,-34.1 -76,-76 V 588.1 c 0,-13.7 11.1,-24.8 24.8,-24.8 H 3070 c 0.6,0 1.2,0 1.7,0.1 l 332.7,0.3 c 129.2,0.1 234.3,105.4 234.3,234.6 v 430.3 c 0,6.6 -2.7,13 -7.4,17.6 -4.6,4.6 -10.9,7.2 -17.4,7.2 0,-0.1 -221.6,-2.6 -221.6,-2.6 z"
           id="path15" />
        <path
           d="m 546.2,1252.6 c -8.9,0 -17,-4.7 -21.5,-12.4 L 156.1,601.8 c -4.4,-7.7 -4.4,-17.1 0,-24.8 4.4,-7.7 12.6,-12.4 21.5,-12.4 h 314.1 c 8.9,0 17,4.7 21.5,12.4 L 672.6,853.1 832,577 c 4.4,-7.7 12.6,-12.4 21.5,-12.4 h 314.1 c 8.9,0 17,4.7 21.5,12.4 4.4,7.7 4.4,17.1 0,24.8 l -368.6,638.4 c -4.4,7.7 -12.6,12.4 -21.5,12.4 z"
           id="path16" />
      </g>
      <path
         d="M 1040,1176.7 V 589.4 h 272.8 v 638.4 h -221.7 c -28.2,0 -51.1,-22.9 -51.1,-51.1 z"
         id="path17" />
      <path
         d="M 1887.5,1176.7 V 589.4 h 272 v 638.4 h -220.9 c -28.2,0 -51.1,-22.9 -51.1,-51.1 z"
         id="path18" />
      <path
         d="M 1229.3,1227.8 V 978.4 h 69.7 c -42.8,-38.8 -69.7,-94.8 -69.7,-156.9 v -20.2 c 0,-116.8 95,-211.8 211.8,-211.8 H 1954 v 249.4 h -53 c 42.8,38.8 69.7,94.8 69.7,156.9 v 20.2 c 0,116.8 -95,211.8 -211.8,211.8 z"
         id="path19" />
      <path
         d="M 835.4,665.9 C 719.7,665.9 625.6,571.8 625.6,456.1 V 234.6 c 0,-115.7 94.1,-209.8 209.8,-209.8 l 391.4,0.4 c 115.6,0.1 209.6,94.2 209.6,209.8 v 221.1 c 0,115.7 -94.1,209.8 -209.8,209.8 z"
         id="path20" />
      <path
         d="m 3214.3,667.2 c -115.7,0 -209.8,-94.1 -209.8,-209.8 V 235.8 C 3004.5,120.1 3098.6,26 3214.3,26 l 391.4,0.4 c 115.6,0.1 209.6,94.2 209.6,209.8 v 221.1 c 0,115.7 -94.1,209.8 -209.8,209.8 h -391.2 z"
         id="path21" />
      <path
         d="m 2285.9,1229.2 c -115.7,0 -209.8,-94.1 -209.8,-209.8 V 797.9 c 0,-115.7 94.1,-209.8 209.8,-209.8 l 391.4,0.4 c 115.6,0.1 209.6,94.2 209.6,209.8 v 221.1 c 0,115.7 -94.1,209.8 -209.8,209.8 z"
         id="path22" />
      <path
         d="M 234.6,667.2 C 118.7,667.2 24.8,573.3 24.8,457.4 V 235.8 C 24.8,120.2 118.9,26 234.6,26 l 433.2,0.2 c 28.2,0 51.1,22.9 51.1,51.2 l 136.6,589.8 z"
         id="path23" />
      <path
         d="m 2613.6,667.2 c -115.9,0 -209.8,-93.9 -209.8,-209.8 V 235.8 C 2403.8,120.1 2497.9,26 2613.6,26 l 433.2,0.2 c 28.2,0 51.1,22.9 51.1,51.2 v 338.2 251.6 z"
         id="path24" />
      <path
         d="m 1552.6,666.2 c -115.9,0 -209.8,-93.9 -209.8,-209.8 V 26.6 h 220.9 c 28.3,0 51.2,22.9 51.2,51.2 V 414.6 H 1897 v 251.6 z"
         id="path25" />
      <path
         d="m 2013.1,667.2 c -115.9,0 -209.8,-93.9 -209.8,-209.8 V 25.9 l 643,0.4 c 28.2,0 51.1,22.9 51.1,51.2 v 197.9 h -36.2 v 140.3 h 36.2 v 251.6 h -484.3 z"
         id="path26" />
      <path
         d="M 3342,1174.8 V 837.3 h -266.7 v 390.5 h -220.9 c -28.3,0 -51.2,-22.9 -51.2,-51.2 V 588.1 H 3070 v 0.1 l 334.4,0.3 c 115.8,0.1 209.6,94 209.6,209.8 v 430.3 l -221.5,-2.5 c -28,-0.4 -50.5,-23.2 -50.5,-51.3 z"
         id="path27" />
      <path
         d="M 546.2,1227.8 177.6,589.4 H 491.7 L 672.6,902.7 853.5,589.4 h 314.1 L 799,1227.8 Z"
         id="path28" />
      <path
         d="m 1364.2,573.1 h 45.9 V 619 h -45.9 z"
         id="path29" />
      <path
         d="m 835.4,605.7 h 391.1 c 82.6,0 149.6,-67 149.6,-149.6 V 235 c 0,-82.6 -66.9,-149.5 -149.4,-149.6 L 835.5,85 C 752.8,84.9 685.7,151.9 685.7,234.6 v 221.5 c 0.1,82.6 67.1,149.6 149.7,149.6 z m 2,-333.8 c 0,-32 26,-58 58,-58 h 271 c 32,0 58,26 58,58 v 144.6 c 0,32 -26,58 -58,58 h -271 c -32,0 -58,-26 -58,-58 z M 3605.6,86.6 3214.5,86.2 c -82.7,-0.1 -149.8,66.9 -149.8,149.6 v 221.5 c 0,82.6 67,149.6 149.6,149.6 h 391.1 c 82.6,0 149.6,-67 149.6,-149.6 V 236.2 c 0,-82.5 -66.9,-149.5 -149.4,-149.6 z m -2.2,331.2 c 0,32 -26,58 -58,58 h -271 c -32,0 -58,-26 -58,-58 V 273.1 c 0,-32 26,-58 58,-58 h 271 c 32,0 58,26 58,58 z m -2944.7,58 h -364 c -32,0 -58,-26 -58,-58 V 273.1 c 0,-32 26,-58 58,-58 h 364 V 86.4 l -424,-0.2 C 152.1,86.2 85,153.2 85,235.8 V 457.3 C 85,540 152,607 234.6,607 H 658.7 Z M 2613.6,607 h 424.1 V 475.8 h -364 c -32,0 -58,-26 -58,-58 V 273.1 c 0,-32 26,-58 58,-58 h 364 V 86.4 l -424,-0.2 C 2531,86.1 2463.9,153.1 2463.9,235.8 V 457.3 C 2464,540 2531,607 2613.6,607 Z m -1061,-1 h 284.1 V 474.8 h -224 c -32,0 -58,-26 -58,-58 V 86.8 H 1403 v 369.6 c 0,82.6 66.9,149.6 149.6,149.6 z m 460.5,1 h 424.1 V 475.8 h -383.3 c -21.4,0 -38.8,-17.4 -38.8,-38.8 0,-21.4 17.4,-38.8 38.8,-38.8 H 2401 V 294.9 h -346 c -22,0 -39.9,-17.9 -39.9,-39.9 0,-22 17.9,-39.9 39.9,-39.9 h 382.2 V 86.4 L 1863.5,86 v 371.3 c 0,82.7 66.9,149.7 149.6,149.7 z m -912.9,560.6 h 152.4 v -518 h -152.4 z m 847.5,0 h 151.6 v -518 H 1947.7 Z M 1758.9,844.1 h -285 c -18.1,0 -32.7,-14.7 -32.7,-32.7 0,-18.1 14.7,-32.7 32.7,-32.7 h 419.9 v -129 h -452.6 c -83.7,0 -151.6,67.9 -151.6,151.6 v 20.2 c 0,83.7 67.9,151.6 151.6,151.6 h 285 c 18.1,0 32.7,14.7 32.7,32.7 0,18 -14.7,32.7 -32.7,32.7 h -436.6 v 129 h 469.3 c 83.7,0 151.6,-67.9 151.6,-151.6 v -20.2 c 0,-83.7 -67.9,-151.6 -151.6,-151.6 z m 918.3,-195.4 -391.1,-0.4 c -82.7,-0.1 -149.8,66.9 -149.8,149.6 v 221.5 c 0,82.6 67,149.6 149.6,149.6 H 2677 c 82.6,0 149.6,-67 149.6,-149.6 V 798.3 c 0,-82.6 -66.9,-149.6 -149.4,-149.6 z m -2.2,331.1 c 0,32 -26,58 -58,58 h -271 c -32,0 -58,-26 -58,-58 V 835.2 c 0,-32 26,-58 58,-58 h 271 c 32,0 58,26 58,58 z m 729.4,-331.1 -391.1,-0.4 c -1.1,0 -2.3,0.1 -3.4,0.2 v -0.2 h -146.4 v 519.4 h 151.6 V 835.2 c 0,-32 26,-58 58,-58 h 271 c 32,0 58,26 58,58 V 1166 l 151.6,1.7 V 798.3 c 0.1,-82.6 -66.8,-149.6 -149.3,-149.6 z M 672.6,1023.1 456.9,649.6 H 281.8 l 299.1,518 h 183.3 l 299.1,-518 H 888.2 Z"
         fill="url(#a)"
         id="path30"
         style="fill:url(#a)" />
    </g>
  </g>
</svg>
